assets/icons/qvision/charging_station.svg

<svg xmlns="http://www.w3.org/2000/svg" enable-background="new 0 0 24 24" height="24" viewBox="0 0 24 24" width="24"><g><rect fill="none" height="24" width="24"/><path d="M14.5,11l-3,6v-4h-2l3-6v4H14.5z M7,1h10c1.1,0,2,0.9,2,2v18c0,1.1-0.9,2-2,2H7c-1.1,0-2-0.9-2-2V3C5,1.9,5.9,1,7,1z M7,6 v12h10V6H7z"/></g></svg>

<svg width="24" height="24" viewBox="0 0 24 24" fill="none" xmlns="http://www.w3.org/2000/svg">
<g clip-path="url(#clip0_147_6131)">
<path d="M14.5 11L11.5 17V13H9.5L12.5 7V11H14.5ZM7 1H17C18.1 1 19 1.9 19 3V21C19 22.1 18.1 23 17 23H7C5.9 23 5 22.1 5 21V3C5 1.9 5.9 1 7 1ZM7 6V18H17V6H7Z" fill="#323232"/>
</g>
<defs>
<clipPath id="clip0_147_6131">
<rect width="24" height="24" fill="white"/>
</clipPath>
</defs>
</svg>
